!!!COM:	Josquin des Prez
!!!CDT:	~1450-1521/08/27
!!!COA2: La Rue, Pierre de
!!!CDT2: ~1452///-1518/11/20/
!!!OPR:	Missa De beata virgine
!!!ONM:	3
!!!OTL:	Credo
!!!AGN:	Mass; Credo
!!!SCT:	NJE 3.3
!!!SCA:	New Josquin Edition 3.3
!!!voices:	4
!!!voices-OPR:	4-5
**kern	**kern	**kern	**kern	**kern
*Ivox	*Ivox	*Ivox	*Ivox	*Ivox
*I"Bassus	*I"Tenor2	*I"Altus	*I"Tenor1	*I"Superius
*I'B	*I'T2	*I'A	*I'T1	*I'S
*staff5	*staff4	*staff3	*staff2	*staff1
*clefF4	*clefGv2	*clefGv2	*clefGv2	*clefG2
*k[]	*k[b-]	*k[]	*k[]	*k[]
*M2/1	*M2/1	*M2/1	*M2/1	*M2/1
*met(C|)	*met(C|)	*met(C|)	*met(C|)	*met(C|)
=1-	=1-	=1-	=1-	=1-
!	!	!	!LO:TX:Z=10:X=-50:t=Canon&colon; Le premier va devant [canon at the lower fifth]	!
0r	0r	0r	0e	1r
.	.	.	.	[1e
=2	=2	=2	=2	=2
0r	0r	0r	0f	2e/]
.	.	.	.	4d/
.	.	.	.	4c/
.	.	.	.	1d
=3	=3	=3	=3	=3
0r	0A	0r	1e	2e/
.	.	.	.	2A/
.	.	.	1c	[1a
=4	=4	=4	=4	=4
0r	0B-	0r	1.d	2a/]
.	.	.	.	4g/
.	.	.	.	4f/
.	.	.	.	1g
.	.	.	2e\	.
=5	=5	=5	=5	=5
0D	1A	1.A	1f	0a
.	1F	.	1d	.
.	.	2B\	.	.
=6	=6	=6	=6	=6
1C	1.G	1c	0e	1r
1C	.	1c	.	1g
.	2A/	.	.	.
=7	=7	=7	=7	=7
1.G	1B-	2d\	0d	1g
.	.	2G/	.	.
.	1G	2.B-i\	.	[1g
4F\	.	.	.	.
4E\	.	4c\	.	.
=8	=8	=8	=8	=8
1D	0A	1d	0r	2g/]
.	.	.	.	4f#i/
.	.	.	.	4e/
1D	.	[1D	.	1f#i
=9	=9	=9	=9	=9
1GG	0G	1D]	1B	0g
1C	.	1E	1c	.
=10	=10	=10	=10	=10
1BB-i	0r	1F	1d	0r
1GG	.	[1G	1B	.
=11	=11	=11	=11	=11
2.C/	1E	1G]	1c	0r
4E\	.	.	.	.
1D	1F	1A	1d	.
=12	=12	=12	=12	=12
1C	1G	1.c	0e	0r
1C	1E	.	.	.
.	.	2B\	.	.
=13	=13	=13	=13	=13
1D	1F	1A	0d	0r
2GG/	1G	2.G/	.	.
[2G\	.	.	.	.
.	.	4F/	.	.
=14	=14	=14	=14	=14
2G\]	0A	0D	0r	0r
4F#i\	.	.	.	.
4E\	.	.	.	.
1F#i	.	.	.	.
=15	=15	=15	=15	=15
1G	0G	2r	1B	1r
.	.	1G	.	.
2C/	.	.	1c	1e
2E\	.	2G/	.	.
=16	=16	=16	=16	=16
1D	0r	1A	1d	1f
1GG	.	1B	1d	1g
=17	=17	=17	=17	=17
1C	1E	2.c\	1e	1g
.	.	4B\	.	.
1r	1F	1A	2c\	1a
.	.	.	[2d\	.
=18	=18	=18	=18	=18
0r	1G	2.G/	4d\]	2d/
.	.	.	4c\	.
.	.	.	4B\	2.g/
.	.	4F/	4A/	.
.	1G	1E	1B	.
.	.	.	.	4f/
.	.	.	.	4e/
.	.	.	.	4d/
=19	=19	=19	=19	=19
1AA	1A	1E	1A	4c/
.	.	.	.	4d/
.	.	.	.	4e/
.	.	.	.	4c/
1BB-i	2F/	1D	1r	1d
.	[2G/	.	.	.
=20	=20	=20	=20	=20
1C	4G/]	1r	0e	0r
.	4F/	.	.	.
.	4E/	.	.	.
.	4D/	.	.	.
1C	1E	1G	.	.
=21	=21	=21	=21	=21
0D	1D	1F	0f	1.a
.	1r	[1A	.	.
.	.	.	.	2b\
=22	=22	=22	=22	=22
1AA	0A	2A/]	0e	1cc
.	.	2G/	.	.
1C	.	1E	.	1cc
=23	=23	=23	=23	=23
1BB-i	0B-	1F	1.d	1.dd
1GG	.	1G	.	.
.	.	.	2d\	2g/
=24	=24	=24	=24	=24
1D	0A	1F	1d	2a/
.	.	.	.	2f/
1AA	.	1E	1c	1cc
=25	=25	=25	=25	=25
1.BB	1.G	1.D	0d	1b
.	.	.	.	1r
2GG/	2G/	2D/	.	.
=26	=26	=26	=26	=26
1BB	1G	1D	0r	1g
1AA	1F	1C	.	1a
=27	=27	=27	=27	=27
1GG	0G	1D	1d	1.b
1r	.	[1G	2d\	.
.	.	.	[2d\	2g/
=28	=28	=28	=28	=28
1.GG	0r	2G/]	2d\]	2.b\
.	.	2G/	2d\	.
.	.	.	.	4cc\
.	.	2.G/	2d\	1dd
2GG/	.	.	2d\	.
.	.	4A/	.	.
=29	=29	=29	=29	=29
1GG	1G	4B\	1d	1g
.	.	4A/	.	.
.	.	4B\	.	.
.	.	4c\	.	.
1GG	2G/	2d\	1B	2r
.	[2G/	[2e\	.	[2g/
=30	=30	=30	=30	=30
1C	2G/]	4e\]	1c	2g/]
.	.	4d\	.	.
.	2G/	1c	.	2e/
1GG	2G/	.	1d	1d
.	2G/	2B\	.	.
=31	=31	=31	=31	=31
1C	1G	1c	0e	1c
2r	1E	2r	.	1g
2C/	.	2c\	.	.
=32	=32	=32	=32	=32
1D	1F	1A	0r	2.f/
.	.	.	.	4e/
1BB	1G	1B	.	1d
=33	=33	=33	=33	=33
0AA	0A	1.c	0e	1c
.	.	.	.	2.cc\
.	.	2A/	.	.
.	.	.	.	4b\
=34	=34	=34	=34	=34
0D	0r	1A	0f	4a/
.	.	.	.	4g/
.	.	.	.	2a/
.	.	2r	.	2f/
.	.	2D/	.	[2a/
=35	=35	=35	=35	=35
1C	0A	1E	1e	2a/]
.	.	.	.	4g/
.	.	.	.	4f/
1C	.	1E	1c	1e
=36	=36	=36	=36	=36
1BB-i	0B-	1F	0d	2d/
.	.	.	.	1dd
1GG	.	2.G/	.	.
.	.	.	.	2b\
.	.	4F/	.	.
=37	=37	=37	=37	=37
1AA	1A	1E	1c	2cc\
.	.	.	.	2.a/
1D	1F	1D	1f	.
.	.	.	.	4g/
.	.	.	.	4a/
.	.	.	.	4b\
=38	=38	=38	=38	=38
2C/	0G	1r	2e\	2cc\
2BB/	.	.	1d	2dd\
1E	.	2r	.	1g
.	.	2G/	2c#i\	.
=39	=39	=39	=39	=39
1D	1F	2A/	0d	1r
.	.	2F/	.	.
2GG/	1B-	2G/	.	2r
[2D\	.	[2F/	.	2d/
=40	=40	=40	=40	=40
2D\]	2A/	4F/]	0r	2f/
.	.	4E/	.	.
2BB/	1G	1D	.	2g/
1AA	.	.	.	4a/
.	.	.	.	4b\
.	2F#i/	2C/	.	4cc\
.	.	.	.	4a/
=41	=41	=41	=41	=41
1GG	0G	1D	1B	2b\
.	.	.	.	1g
1C	.	1E	1c	.
.	.	.	.	4f/
.	.	.	.	4e/
=42	=42	=42	=42	=42
1BB	0r	1F	1d	1d
1GG	.	[1G	1B	2r
.	.	.	.	2d/
=43	=43	=43	=43	=43
1C	1E	2G/]	1c	2e/
.	.	2A/	.	2e/
1BB	1F	1B	[1d	2d/
.	.	.	.	[2dd\
=44	=44	=44	=44	=44
1GG	1G	1B	1d]	4dd\]
.	.	.	.	4cc\
.	.	.	.	4b\
.	.	.	.	4a/
1C	1E	1c	1e	2g/
.	.	.	.	[2a/
=45	=45	=45	=45	=45
1D	1F	1A	0r	4a/]
.	.	.	.	4g/
.	.	.	.	4f/
.	.	.	.	4e/
1BB	[1G	1B	.	2d/
.	.	.	.	[2g/
=46	=46	=46	=46	=46
1C	1G]	2G/	0e	4g/]
.	.	.	.	4f/
.	.	2.c\	.	4e/
.	.	.	.	4d/
1AA	1A	.	.	1c
.	.	4B\	.	.
.	.	4A/	.	.
.	.	4G/	.	.
=47	=47	=47	=47	=47
2r	0r	1F	0f	1d
2.D\	.	.	.	.
.	.	2r	.	2.A/
4C/	.	.	.	.
2D\	.	[2A/	.	.
.	.	.	.	4B/
=48	=48	=48	=48	=48
2AA/	0A	4A/]	1e	2.c/
.	.	4G/	.	.
2.C/	.	2A/	.	.
.	.	.	.	4d/
.	.	1E	1c	2.e/
4BB/	.	.	.	.
2C/	.	.	.	.
.	.	.	.	4f/
=49	=49	=49	=49	=49
1GG	0B-	2r	1d	1g
.	.	2.G/	.	.
1G	.	.	1e	1g
.	.	4F/	.	.
.	.	2G/	.	.
=50	=50	=50	=50	=50
2.F\	1A	0D	1.f	0a
4E\	.	.	.	.
1D	1F	.	.	.
.	.	.	4e\	.
.	.	.	4d\	.
=51	=51	=51	=51	=51
2C/	1G	2r	2e\	0r
2BB/	.	2D/	1d	.
1AA	1A	2F/	.	.
.	.	2E/	2c#i\	.
=52	=52	=52	=52	=52
0GG	1.B-	1.G	0d	1r
.	.	.	.	1d
.	4A/	2D/	.	.
.	4G/	.	.	.
=53	=53	=53	=53	=53
0r	2A/	2F/	0r	2c/
.	1G	2G/	.	2B/
.	.	1D	.	1A
.	2F#i/	.	.	.
=54	=54	=54	=54	=54
1r	0G	1E	1r	1G
1GG	.	2D/	1d	2r
.	.	2G/	.	2B/
=55	=55	=55	=55	=55
2GG/	0r	2G/	2d\	2B/
2GG/	.	2G/	2d\	2B/
1C	.	1E	1e	1c
=56	=56	=56	=56	=56
0GG	1r	1G	2d\	2B/
.	.	.	2d\	2G/
.	1G	2r	2d\	[1g
.	.	2D/	2d\	.
=57	=57	=57	=57	=57
1r	2G/	2E/	2B\	1g]
.	2G/	2E/	2c\	.
2r	1A	2D/	1d	1f
2D\	.	2D/	.	.
=58	=58	=58	=58	=58
2GG/	2G/	2G/	2B\	2r
2C/	2G/	2E/	2c\	2g/
2BB/	2G/	2D/	1d	2b\
2GG/	2G/	2G/	.	2b\
=59	=59	=59	=59	=59
2C/	2E/	1C	2e\	2g/
2AA/	2F/	.	4c\	2a/
.	.	.	4d\	.
2GG/	1G	1r	4e\	2b\
.	.	.	4f\	.
[2C/	.	.	[2e\	2g/
=60	=60	=60	=60	=60
2C/]	2E/	0r	4e\]	2cc\
.	.	.	4d\	.
2D\	2F/	.	1d	1b-i
1E	1G	.	.	.
.	.	.	2c\	4a/
.	.	.	.	4g/
=61	=61	=61	=61	=61
1D	2A/	2r	0d	1f
.	4F/	2D/	.	.
.	4G/	.	.	.
2r	4A/	2D/	.	2r
.	4B-\	.	.	.
2D\	[2A/	2F/	.	2f/
=62	=62	=62	=62	=62
2C/	4A/]	4E/	0r	1g
.	4G/	4D/	.	.
2BB/	1G	1D	.	.
1AA	.	.	.	1a
.	2F#i/	2C/	.	.
=63	=63	=63	=63	=63
0GG	0G	1D	1r	2.b\
.	.	.	.	4cc\
.	.	2r	2.B\	2dd\
.	.	[2G/	.	4g/
.	.	.	4c\	4a/
=64	=64	=64	=64	=64
2r	0r	2G/]	2d\	4b\
.	.	.	.	4cc\
1GG	.	2G/	2d\	2dd\
.	.	2G/	1d	2g/
2GG/	.	2G/	.	[2dd\
=65	=65	=65	=65	=65
2GG/	1r	1G	1B	4dd\]
.	.	.	.	4cc\
2GG/	.	.	.	1b
1AA	2.E/	1C	2c\	.
.	.	.	2c\	2a/
.	4F/	.	.	.
=66	=66	=66	=66	=66
0GG	2G/	0r	2B\	1b
.	2G/	.	2e\	.
.	1G	.	2d\	1r
.	.	.	2B\	.
=67	=67	=67	=67	=67
0r	1E	0r	4c\	1g
.	.	.	4B\	.
.	.	.	1e	.
.	2F/	.	.	1a
.	2F/	.	2d\	.
=68	=68	=68	=68	=68
2.C/	2E/	0r	1e	2g/
.	2A/	.	.	4c/
4C/	.	.	.	4d/
2C/	2G/	.	1r	4e/
.	.	.	.	4f/
2C/	2E/	.	.	2g/
=69	=69	=69	=69	=69
2AA/	4F/	0r	0r	1c
.	4E/	.	.	.
2C/	1A	.	.	.
1BB	.	.	.	1d
.	2G#i/	.	.	.
=70	=70	=70	=70	=70
1AA	1A	2r	2r	1c
.	.	2A/	2e\	.
1r	1r	2F/	2f\	1r
.	.	2G/	2e\	.
=71	=71	=71	=71	=71
0r	0r	2A/	2c\	0r
.	.	2F/	2d\	.
.	.	2G/	2d\	.
.	.	2A/	2c#i\	.
=72	=72	=72	=72	=72
2r	2r	1D	0d	0r
2D\	2A/	.	.	.
2BB-i/	2B-\	1r	.	.
2C/	2A/	.	.	.
=73	=73	=73	=73	=73
2D\	2F/	0r	0r	0r
2BB-i/	2G/	.	.	.
2C/	2G/	.	.	.
2D\	2F#i/	.	.	.
=74	=74	=74	=74	=74
2GG/	0G	1B	1d	0r
2G\	.	.	.	.
2G\	.	2B\	2d\	.
2G\	.	[2B\	[2d\	.
=75	=75	=75	=75	=75
1G	0r	2B\]	2d\]	0r
.	.	2B\	2d\	.
2E\	.	2c\	2e\	.
2F\	.	2A/	2d\	.
=76	=76	=76	=76	=76
2G\	1G	1G	1B	2r
2GG/	.	.	.	2d/
1C	2G/	1r	1c	2e/
.	[2G/	.	.	2c/
=77	=77	=77	=77	=77
1r	2G/]	2G/	2.B\	2d/
.	2G/	2E/	.	2e/
.	.	.	4c\	.
2r	2A/	2D/	2d\	2f/
2GG/	2G/	[2G/	2B\	2g/
=78	=78	=78	=78	=78
2.C/	1E	2G/]	1c	0r
.	.	2G/	.	.
4E\	.	.	.	.
1D	1F	2A/	1d	.
.	.	2B\	.	.
=79	=79	=79	=79	=79
1C	2.E/	2c\	0e	2r
.	.	4C/	.	2g/
.	4F/	4D/	.	.
2r	2G/	4E/	.	2g/
.	.	4F/	.	.
2C/	2E/	4G/	.	2g/
.	.	4E/	.	.
=80	=80	=80	=80	=80
2D\	1F	2A/	2r	2f/
2F\	.	2D/	2A/	2a/
1E	1G	2G/	2B\	2g/
.	.	2C/	2c\	2e/
=81	=81	=81	=81	=81
1D	0A	2r	1d	1f
.	.	1D	.	.
1AA	.	.	1e	2r
.	.	2C/	.	2e/
=82	=82	=82	=82	=82
2r	2r	2D/	1d	1f
2A\	2D/	2F/	.	.
2G\	2E/	2E/	1r	2g/
2F\	2F/	2D/	.	[2a/
=83	=83	=83	=83	=83
1E	1G	0r	0r	4a/]
.	.	.	.	4g/
.	.	.	.	1g
1D	1A	.	.	.
.	.	.	.	2f#i/
=84	=84	=84	=84	=84
0GG	1G	2r	2r	0g
.	.	2D/	2d\	.
.	1r	2D/	2d\	.
.	.	2D/	2d\	.
=85	=85	=85	=85	=85
0r	0r	2.G/	1B	2r
.	.	.	.	2g/
.	.	4F/	.	.
.	.	1E	1c	2g/
.	.	.	.	2e/
=86	=86	=86	=86	=86
2r	2r	0D	1d	2f/
2GG/	2G/	.	.	2g/
2GG/	2G/	.	2r	1d
2GG/	2G/	.	2B\	.
=87	=87	=87	=87	=87
2.C/	1E	0r	1c	0r
4BB/	.	.	.	.
1AA	1F	.	1c	.
=88	=88	=88	=88	=88
2.GG/	1G	0r	2.B\	0r
4AA/	.	.	4c\	.
2BB/	2r	.	2d\	.
2C/	2E/	.	[2e\	.
=89	=89	=89	=89	=89
1D	1F	1r	2e\]	1r
.	.	.	4d\	.
.	.	.	4c\	.
2r	1F	1A	1d	1f
2D\	.	.	.	.
=90	=90	=90	=90	=90
1C	2.E/	1c	0e	1g
.	4F/	.	.	.
1C	2G/	1c	.	1e
.	[2A/	.	.	.
=91	=91	=91	=91	=91
1D	2A/]	1A	0r	2f/
.	4G#i/	.	.	2d/
.	4F#i/	.	.	.
1BB	1G#i	1D	.	1dd
=92	=92	=92	=92	=92
0AA	0A	1E	1r	0cc
.	.	1A	1e	.
=93	=93	=93	=93	=93
1D	0r	1F	1f	1a
1BB-i	.	1G	1d	1b-i
=94	=94	=94	=94	=94
1C	1r	2.E/	1e	1g
.	.	4F/	.	.
1AA	1A	2E/	1c	1cc
.	.	2C/	.	.
=95	=95	=95	=95	=95
1GG	1B-	1G	1d	2b-i\
.	.	.	.	2g/
1GG	1G	1G	1d	1b-i
=96	=96	=96	=96	=96
0D	1A	0F	1r	1.a
.	1F	.	1f	.
.	.	.	.	2bni\
=97	=97	=97	=97	=97
1C	1G	1r	1e	1cc
1BB	1G	1D	1d	1dd
=98	=98	=98	=98	=98
1C	1r	1E	1c	0g
1GG	1B-	1G	1d	.
=99	=99	=99	=99	=99
1D	1A	1F	[0dl	1r
1GG	1G	1G	.	1dd
=100	=100	=100	=100	=100
1.BB-i	1F	[0Dl	0d_	1dd
.	1G	.	.	1dd
2GG/	.	.	.	.
=101	=101	=101	=101	=101
[0GGl	[0Gl	0D_	0d_	1.b
.	.	.	.	2g/
=102	=102	=102	=102	=102
0GG]	0G]	0D]	0d]	0gl
!!LO:LB:i:g=z
=103||	=103||	=103||	=103||	=103||
*>B	*>B	*>B	*>B	*>B
*k[]	*k[b-]	*k[]	*k[]	*k[]
*M2/1	*M2/1	*M2/1	*M2/1	*M2/1
*met(C|)	*met(C|)	*met(C|)	*met(C|)	*met(C|)
!!section: Crucifixus
!!!OMD: Crucifixus
0r	0r	1G	1d	1r
.	.	1E	1e	1g
=104	=104	=104	=104	=104
0r	0r	1F	1d	1a
.	.	1G	1B	1g
=105	=105	=105	=105	=105
1C	1G	0r	2c\	0e
.	.	.	2c\	.
1AA	1A	.	2c\	.
.	.	.	2c\	.
=106	=106	=106	=106	=106
1BB	1G	1r	1d	0r
1C	1E	2G/	1e	.
.	.	2G/	.	.
=107	=107	=107	=107	=107
2AA/	2F/	2A/	0r	2c/
2AA/	2F/	2A/	.	2c/
2D\	2F/	2.A/	.	2d/
2D\	2F/	.	.	2f/
.	.	4B\	.	.
=108	=108	=108	=108	=108
1C	1G	1c	0r	2.e/
.	.	.	.	4c/
1AA	1A	1r	.	2c/
.	.	.	.	2c/
=109	=109	=109	=109	=109
0r	0r	2r	2r	2c/
.	.	2A/	2e\	2c/
.	.	2F/	2f\	2d/
.	.	2G/	2e\	[2e/
=110	=110	=110	=110	=110
0r	0r	2A/	2c\	4e/]
.	.	.	.	4d/
.	.	2B-i\	2d\	1d
.	.	1A	1e	.
.	.	.	.	2c#i/
=111	=111	=111	=111	=111
2r	2r	1D	1d	2d/
2D\	2A/	.	.	2f/
2BB-i/	2B-\	1r	1r	2g/
2C/	2A/	.	.	[2a/
=112	=112	=112	=112	=112
2D\	2F/	0r	0r	4a/]
.	.	.	.	4g/
2E-i\	2G/	.	.	2g/
1D	1A	.	.	4f#i/
.	.	.	.	4g/
.	.	.	.	4a/
.	.	.	.	4f#i/
=113	=113	=113	=113	=113
1GG	1G	1r	1r	1.g
[1C	1r	1G	[1e	.
.	.	.	.	4a/
.	.	.	.	4b\
=114	=114	=114	=114	=114
1C]	0r	1E	1e]	1cc
1AA	.	[1A	1e	1cc
=115	=115	=115	=115	=115
1D	1r	2A/]	1.f	1a
.	.	2A/	.	.
1D	[1A	2A/	.	1a
.	.	2A/	2e\	.
=116	=116	=116	=116	=116
1.F	1A]	1D	1d	1.a
.	1A	2r	1c	.
2F\	.	[2F/	.	2f/
=117	=117	=117	=117	=117
2.BB-/	1.B-	2F/]	1d	1f
.	.	2D/	.	.
4C/	.	.	.	.
2D\	.	2F/	1r	1r
[2C/	2A/	[2E/	.	.
=118	=118	=118	=118	=118
4C/]	1G	4E/]	0r	0r
4BB-i/	.	4D/	.	.
4AA/	.	1D	.	.
4GG/	.	.	.	.
1AA	1F#i	.	.	.
.	.	2C/	.	.
=119	=119	=119	=119	=119
0GG	1G	1D	1r	0r
.	1r	2r	1d	.
.	.	2D/	.	.
=120	=120	=120	=120	=120
0r	0r	1G	1d	2r
.	.	.	.	2g/
.	.	1E	1e	1g
=121	=121	=121	=121	=121
1r	1r	1F	1d	1a
2r	1G	1G	1B	1g
2GG/	.	.	.	.
=122	=122	=122	=122	=122
1C	1G	0r	1c	0e
1AA	1A	.	2c\	.
.	.	.	2c\	.
=123	=123	=123	=123	=123
1BB	1G	0r	1d	1r
1C	1E	.	1e	1g
=124	=124	=124	=124	=124
*	*	*	*	*M3/3%2
*	*	*	*	*met(3)
*	*	*	*	*rscale:3/2
2r	1F	2r	0r	3.a/
2AA/	.	2C/	.	6b\
.	.	.	.	3cc\
2BB-i/	2F/	2D/	.	3.f/
2AA/	2F/	2C/	.	6g/
.	.	.	.	3a/
*	*	*	*	*rscale:1
=125	=125	=125	=125	=125
*	*	*	*	*M2/1
*	*	*	*	*met(C|)
1BB-i	1G	1D	1r	2d/
.	.	.	.	2dd\
1AA	1A	2E/	1e	2.cc\
.	.	[2A/	.	.
.	.	.	.	4a/
=126	=126	=126	=126	=126
1D	0r	4A/]	1f	0a
.	.	4G/	.	.
.	.	4A/	.	.
.	.	4B\	.	.
1C	.	4c\	1e	.
.	.	4d\	.	.
.	.	[2e\	.	.
=127	=127	=127	=127	=127
2AA/	1r	2e\]	2c\	2r
2D\	.	1d	2d\	2a/
1AA	1A	.	1e	4cc\
.	.	.	.	4b\
.	.	2c#i\	.	4a/
.	.	.	.	4g/
=128	=128	=128	=128	=128
[0D	1B-	2.d\	0d	2f/
.	.	.	.	4d/
.	.	4D/	.	4e/
.	1A	4D/	.	4f/
.	.	4E/	.	4g/
.	.	4F/	.	[2a/
.	.	4G/	.	.
=129	=129	=129	=129	=129
0D]	2F/	2A/	0r	4a/]
.	.	.	.	4g/
.	2G/	2B-i\	.	1g
.	1A	2A/	.	.
.	.	[2d\	.	2f#i/
=130	=130	=130	=130	=130
1GG	0G	2d\]	2.B\	0g
.	.	4G/	.	.
.	.	4A/	4c\	.
1G	.	4B\	2d\	.
.	.	4c\	.	.
.	.	[2d\	2B\	.
=131	=131	=131	=131	=131
2F\	0r	4d\]	1c	0r
.	.	4c\	.	.
2E\	.	1c	.	.
1D	.	.	1d	.
.	.	2B\	.	.
=132	=132	=132	=132	=132
2C/	2.E/	0c	0e	2r
2C/	.	.	.	2g/
.	4F/	.	.	.
2C/	2G/	.	.	2e/
2C/	2E/	.	.	2g/
=133	=133	=133	=133	=133
2D\	1F	0r	0r	2.f/
2AA/	.	.	.	.
.	.	.	.	4e/
1BB	1G	.	.	1d
=134	=134	=134	=134	=134
0AA	0A	2r	2r	0c
.	.	2A/	2e\	.
.	.	2.c\	2e\	.
.	.	.	2e\	.
.	.	4B\	.	.
=135	=135	=135	=135	=135
0r	0r	2A/	2.f\	0r
.	.	2G/	.	.
.	.	.	4e\	.
.	.	2F/	2d\	.
.	.	2E/	2c#i\	.
=136	=136	=136	=136	=136
2r	2r	0D	0d	0r
2D\	2A/	.	.	.
2.F\	2A/	.	.	.
.	2A/	.	.	.
4E\	.	.	.	.
=137	=137	=137	=137	=137
2D\	2.B-\	0r	0r	0r
2C/	.	.	.	.
.	4A/	.	.	.
2BB-i/	2G/	.	.	.
2AA/	2F#i/	.	.	.
=138	=138	=138	=138	=138
1GG	0G	2r	2r	2r
.	.	2D/	2d\	2g/
1r	.	2.E/	2B\	2.g/
.	.	.	2c\	.
.	.	4E/	.	4g/
=139	=139	=139	=139	=139
0r	0r	2D/	2d\	2f/
.	.	2F/	2A/	2a/
.	.	2E/	2B\	2.g/
.	.	2E/	2c\	.
.	.	.	.	4e/
=140	=140	=140	=140	=140
2r	2r	1D	1d	2f/
2GG/	2G/	.	.	2g/
2.AA/	2E/	1r	1r	1r
.	2F/	.	.	.
4AA/	.	.	.	.
=141	=141	=141	=141	=141
2GG/	2G/	0r	0r	2r
2BB/	2D/	.	.	2dd\
2AA/	2E/	.	.	2cc\
2AA/	2F/	.	.	2a/
=142	=142	=142	=142	=142
1GG	1G	2r	2d\	2b\
.	.	2G/	2B\	2dd\
1r	1r	2E/	2c\	2cc\
.	.	2F/	2d\	2a/
=143	=143	=143	=143	=143
0r	0r	2G/	2B\	1g
.	.	2E/	2c\	.
.	.	2F/	2d\	1r
.	.	2G/	2e\	.
=144	=144	=144	=144	=144
2r	2G/	1E	0r	0r
2C/	2E/	.	.	.
2AA/	2F/	1r	.	.
2BB/	2G/	.	.	.
=145	=145	=145	=145	=145
2C/	2E/	0r	1r	0r
2AA/	2F/	.	.	.
2BB/	2G/	.	2r	.
2C/	2A/	.	2e\	.
=146	=146	=146	=146	=146
1D	0r	0r	2.f\	2r
.	.	.	.	2a/
.	.	.	4e\	.
1r	.	.	2f\	2a/
.	.	.	[2e\	2g/
=147	=147	=147	=147	=147
0r	1r	0r	4e\]	1f
.	.	.	4d\	.
.	.	.	1d	.
.	2r	.	.	1e
.	2A/	.	2c#i\	.
=148	=148	=148	=148	=148
2r	2.B-\	2r	1d	1d
2D\	.	2F/	.	.
.	4A/	.	.	.
2D\	2B-\	2F/	1r	1r
2C/	[2A/	[2E/	.	.
=149	=149	=149	=149	=149
1BB-i	4A/]	4E/]	0r	0r
.	4G/	4D/	.	.
.	1G	1D	.	.
1AA	.	.	.	.
.	2F#i/	2C/	.	.
=150	=150	=150	=150	=150
1GG	1G	1D	0d	0dd
1r	1r	1r	.	.
=151	=151	=151	=151	=151
0GG	0r	0G	0d	0b
=152	=152	=152	=152	=152
0C	0G	1E	0e	0cc
.	.	1C	.	.
=153	=153	=153	=153	=153
0GG	0G	1.D	0d	0b
.	.	2E/	.	.
=154	=154	=154	=154	=154
0D	0A	0F	1r	1r
.	.	.	1d	1a
=155	=155	=155	=155	=155
1r	0G	1r	1d	1.b
1GG	.	1G	1d	.
.	.	.	.	2g/
=156	=156	=156	=156	=156
0C	1r	1E	0e	0g
.	1G	1C	.	.
=157	=157	=157	=157	=157
1BB	1G	1.D	[0dl	1r
1GG	1G	.	.	[1g
.	.	2E/	.	.
=158	=158	=158	=158	=158
0D	0A	1F	0d_	2g/]
.	.	.	.	4f#i/
.	.	.	.	4e/
.	.	1D	.	1f#i
=159	=159	=159	=159	=159
0GGl	0Gl	0Dl	0d]	0gl
!!LO:LB:i:g=z
=160||	=160||	=160||	=160||	=160||
*>C	*>C	*>C	*>C	*>C
*k[]	*k[b-]	*k[]	*k[]	*k[]
*M2/1	*M2/1	*M2/1	*M2/1	*M2/1
*met(C|)	*met(C|)	*met(C|)	*met(C|)	*met(C|)
!!section: Et in spiritum sanctum
!!!OMD: Et in spiritum sanctum
!	!	!	!LO:TX:Z=10:X=-50:t=Canon&colon; Le devant va derri&egrave;re [T2->T1 canon at the upper fifth]	!
0r	0E	0r	0r	0r
=161	=161	=161	=161	=161
0r	1F	0r	0r	0r
.	[1G	.	.	.
=162	=162	=162	=162	=162
1r	2G/]	0r	0B	0r
.	2G/	.	.	.
[1E	1G	.	.	.
=163	=163	=163	=163	=163
1E]	0r	0r	1c	0r
1F	.	.	[1d	.
=164	=164	=164	=164	=164
2.G\	2r	0r	2d\]	2r
.	1G	.	2d\	1b
4F\	.	.	.	.
1D	.	.	1d	.
.	2F/	.	.	2a/
=165	=165	=165	=165	=165
1GG	1G	1r	0r	1b
2r	1E	2r	.	1g
[2G\	.	[2B\	.	.
=166	=166	=166	=166	=166
2G\]	1.D	2B\]	2r	1a
2F\	.	2A/	1d	.
2G\	.	2B\	.	2r
2E\	2r	2G/	2c\	[2g/
=167	=167	=167	=167	=167
1D	0r	1A	1d	2g/]
.	.	.	.	2f/
1GG	.	2r	1B	1g
.	.	2G/	.	.
=168	=168	=168	=168	=168
0D	1r	1F	1A	1a
.	1A	1F	1r	1a
=169	=169	=169	=169	=169
1r	0B-	1G	0r	2.d/
.	.	.	.	4c/
1G	.	1G	.	2d/
.	.	.	.	2e/
=170	=170	=170	=170	=170
1F	1A	1D	1r	2f/
.	.	.	.	2.d/
1E	[1G	2r	1e	.
.	.	.	.	4c#i/
.	.	2G/	.	4c#i/
.	.	.	.	4B/
=171	=171	=171	=171	=171
1D	2G/]	2.A/	0f	0d
.	4F/	.	.	.
.	4E/	4G/	.	.
1D	1F	2A/	.	.
.	.	2B\	.	.
=172	=172	=172	=172	=172
2.C/	0G	1c	1e	1r
4BB/	.	.	.	.
2GG/	.	1B	[1d	1g
[2G\	.	.	.	.
=173	=173	=173	=173	=173
4G\]	1r	0G	2d\]	1g
4F\	.	.	.	.
4E\	.	.	4c\	.
4D\	.	.	4B\	.
1E	1G	.	1c	1g
=174	=174	=174	=174	=174
0D	1A	1r	0d	1.f
.	1F	1A	.	.
.	.	.	.	4e/
.	.	.	.	4d/
=175	=175	=175	=175	=175
1r	1G	2B-i\	1r	1d
.	.	2.G/	.	.
1GG	1r	.	1d	1B-i
.	.	4F/	.	.
.	.	2G/	.	.
=176	=176	=176	=176	=176
1C	1G	2.E/	1e	1c
.	.	4D/	.	.
1AA	1A	2E/	1c	1c
.	.	[2F/	.	.
=177	=177	=177	=177	=177
1BB-i	1F	2F/]	1d	1B-i
.	.	2D/	.	.
[1GG	[1G	1D	1r	[1b-i
=178	=178	=178	=178	=178
2GG/]	1G]	1G	1d	2b-\]
2GG/	.	.	.	4a/
.	.	.	.	4g/
1C	1G	2.E/	1e	2g/
.	.	.	.	[2cc\
.	.	4D/	.	.
=179	=179	=179	=179	=179
2AA/	0A	2E/	1c	4cc\]
.	.	.	.	4b-i\
2AA/	.	1F	.	4a/
.	.	.	.	4g/
1D	.	.	[1d	4f#i/
.	.	.	.	4g/
.	.	2D/	.	4a/
.	.	.	.	4f#i/
=180	=180	=180	=180	=180
1GG	0G	1D	1d]	[0g
2r	.	1G	1d	.
2GG/	.	.	.	.
=181	=181	=181	=181	=181
2.C/	0r	2.E/	0e	0g]
4D\	.	4F/	.	.
2E\	.	1G	.	.
2F\	.	.	.	.
=182	=182	=182	=182	=182
2G\	1G	2r	0d	0r
2GG/	.	2B\	.	.
1D	1A	1A	.	.
=183	=183	=183	=183	=183
0r	1F	1A	0r	0r
.	1G	2G/	.	.
.	.	[2B\	.	.
=184	=184	=184	=184	=184
1GG	1r	4B\]	1d	3%4gV
.	.	4A/	.	.
.	.	4G/	.	.
.	.	4F/	.	.
1C	1G	2.E/	1e	.
.	.	.	.	[3%2ccZ
.	.	4D/	.	.
=185	=185	=185	=185	=185
1AA	1A	2E/	1c	3%2cc]V
.	.	1F	.	.
.	.	.	.	3%4aZ
1D	1F	.	1d	.
.	.	2D/	.	.
=186	=186	=186	=186	=186
1r	1G	2.d\	1r	3%4bV
.	.	4c\	.	.
1GG	1r	4B\	1d	.
.	.	4A/	.	.
.	.	.	.	[3%2gZ
.	.	[2G/	.	.
=187	=187	=187	=187	=187
1C	1G	4G/]	1e	3%2g]V
.	.	4F/	.	.
.	.	4E/	.	.
.	.	.	.	3%4ccZ
.	.	4D/	.	.
1AA	1A	2E/	1c	.
.	.	[2F/	.	.
=188	=188	=188	=188	=188
0D	1F	4F/]	1d	3%4aV
.	.	4G/	.	.
.	.	2A/	.	.
.	1F	2D/	1r	.
.	.	.	.	[3%2ddZ
.	.	2d\	.	.
=189	=189	=189	=189	=189
1GG	0G	2B\	1d	3%2dd]V
.	.	2d\	.	.
.	.	.	.	3%4gZ
1C	.	[1c	1e	.
=190	=190	=190	=190	=190
1.AA	1A	2c\]	1c	2.cc\
.	.	2A/	.	.
.	.	.	.	4b\
.	1r	1A	1c	2cc\
2AA/	.	.	.	[2a/
=191	=191	=191	=191	=191
1D	1A	1F	0d	4a/]
.	.	.	.	4g/
.	.	.	.	4f/
.	.	.	.	4e/
1GG	1B-	1G	.	1d
=192	=192	=192	=192	=192
1.C	2.G/	1.E	1e	1c
.	4F/	.	.	.
.	2G/	.	1r	1r
2C/	[2A/	2C/	.	.
=193	=193	=193	=193	=193
1C	2A/]	1E	1e	1c
.	2G/	.	.	.
1D	4F/	1D	1f	1A
.	4G/	.	.	.
.	4A/	.	.	.
.	4F/	.	.	.
=194	=194	=194	=194	=194
2.GG/	0G	2r	2.d\	2B-i/
.	.	1G	.	2.b-i\
4AA/	.	.	4c\	.
2BB-i/	.	.	2d\	.
.	.	.	.	4a/
[2C/	.	2E/	[2e\	[2g/
=195	=195	=195	=195	=195
2C/]	1r	2G/	2e\]	4g/]
.	.	.	.	4f/
2D\	.	2F/	2d\	2d/
1AA	1E	1A	4c#i\	1e
.	.	.	4d\	.
.	.	.	4e\	.
.	.	.	4c#i\	.
=196	=196	=196	=196	=196
2r	1F	1D	0d	2d/
1BB-i	.	.	.	2dd\
.	[1G	2r	.	2dd\
2GG/	.	2D/	.	2dd\
=197	=197	=197	=197	=197
2C/	2G/]	2E/	1r	2g/
2BB-i/	2G/	2D/	.	2.dd\
2GG/	2G/	1d	1B	.
.	.	.	.	4cc\
2G\	2G/	.	.	2b\
=198	=198	=198	=198	=198
2.F\	1A	0r	1c	4a/
.	.	.	.	4g/
.	.	.	.	1g
4E\	.	.	.	.
1D	1A	.	[1d	.
.	.	.	.	2f#i/
=199	=199	=199	=199	=199
1GG	1G	1B	2d\]	0g
.	.	.	2d\	.
2r	2r	1B	2d\	.
2GG/	2G/	.	2d\	.
=200	=200	=200	=200	=200
2C/	2G/	1c	1e	1r
2C/	2G/	.	.	.
1C	1G	1c	1e	1g
=201	=201	=201	=201	=201
2GG/	2G/	2B\	1d	2g/
2GG/	2G/	2B\	.	2g/
2GG/	2G/	2B\	2r	1g
2GG/	2G/	2B\	2d\	.
=202	=202	=202	=202	=202
1D	1A	2A/	2d\	2f/
.	.	2D/	2d\	2f/
2r	2r	2D/	1d	2f/
2D\	2A/	2D/	.	2f/
=203	=203	=203	=203	=203
2.GG/	2B-\	1G	2d\	1g
.	2B-\	.	2d\	.
4GG/	.	.	.	.
2GG/	2B-\	1G	2d\	2r
2GG/	2B-\	.	2d\	2g/
=204	=204	=204	=204	=204
1C	1c	2.E/	1e	2g/
.	.	.	.	2g/
.	.	4F/	.	.
1C	1c	2G/	2r	2e/
.	.	2A/	2e\	2e/
=205	=205	=205	=205	=205
1D	1B-	2F/	2f\	1d
.	.	2D/	2f\	.
1D	1A	1d	2f\	2r
.	.	.	2f\	2a/
=206	=206	=206	=206	=206
1GG	1G	2r	1g	4b\
.	.	.	.	4a/
.	.	2d\	.	4b\
.	.	.	.	4cc\
1r	1r	2B\	1g	2dd\
.	.	2c\	.	[2ee\
=207	=207	=207	=207	=207
0r	0r	1d	1f	4ee\]
.	.	.	.	4dd\
.	.	.	.	1dd
.	.	1A	1e	.
.	.	.	.	2cc#i\
=208	=208	=208	=208	=208
*M3/3%2	*M3/3%2	*M3/3%2	*M3/3%2	*M3/3%2
*met()	*met()	*met()	*met()	*met(3)
*	*	*	*	*rscale:3/2
3%4GGV	3%4GV	3%4BV	1d	0dd
.	.	.	1r	.
3%2DZ	3%2FZ	3%2AZ	.	.
=209	=209	=209	=209	=209
3%2EV	3%2GV	3%2GV	0r	0r
3%4FZ	3%4AZ	3%4cZ	.	.
=210	=210	=210	=210	=210
3%2.GV	3%4GV	3%4BV	3%4dV	3%4g
3F\	.	.	.	.
3%2EZ	3%2rZ	3%2GZ	3%2cZ	3%2g
=211	=211	=211	=211	=211
3%2DV	0r	3%2AV	3%2dV	3%2f
3%4CZ	.	3%4cZ	3%4eZ	3%2.g
.	.	.	.	3a/
=212	=212	=212	=212	=212
3%4GGV	3%4GV	3%4BV	3%4dV	3%2b
.	.	.	.	3%2g
3%2DZ	3%2FZ	3%2AZ	3%2rZ	3%2a
=213	=213	=213	=213	=213
3%2EV	3%2GV	3%2cV	0r	3%2g
3%4DZ	3%4AZ	3%4dZ	.	3%2.f#i
.	.	.	.	3e/
=214	=214	=214	=214	=214
3%4GGV	3%4GV	3%2BV	3%4dV	3%4g
.	.	3%2.G	.	.
3%2CZ	3%2rZ	.	3%2cZ	3%2e
.	.	3A/Z	.	.
=215	=215	=215	=215	=215
3%2BBV	0r	3%2BV	3%2dV	3%2d
3%4CZ	.	3%2G	3%4eZ	3%4g
.	.	3%2cZ	.	.
=216	=216	=216	=216	=216
3%2GGV	3%2GV	3%2BV	3%4dV	3%2b
3%2GG	3%2G	3%2d	.	3%2b
3%2GZ	3%2GZ	3%2dZ	3%2rZ	3%2b
=217	=217	=217	=217	=217
3%2DV	3%2FV	3%2dV	0r	3%2a
3%4EZ	3%4GZ	3%2B	.	3%2.g
.	.	3%2cZ	.	.
.	.	.	.	6f/
.	.	.	.	6g/
=218	=218	=218	=218	=218
3%4DV	3%4AV	3%2dV	3%2dV	3%4f
.	.	3%2A	3%2d	.
3%2BBZ	3%2rZ	3%2BZ	3%2dZ	[3%2d
=219	=219	=219	=219	=219
3%2AAV	3%4AV	3%2cV	3%2cV	3d/]
.	.	.	.	3e/
3%4DZ	.	3%2.A	3%4dZ	3%4f
.	3%2FZ	.	.	.
.	.	3B\Z	.	.
=220	=220	=220	=220	=220
3%2CV	3%2GV	[3%4.c	3%4eV	3%2e
3%2.AA	3%4AZ	.	.	3%2.c
.	.	.	3%2rZ	.
3BB/Z	.	.	.	3d/
=221	=221	=221	=221	=221
3%4CV	3%4GV	3%2c]V	3%4eV	3%2e
.	.	3%2.G	.	3%2c
3%2CZ	3%2rZ	.	3%2cZ	3%2e
.	.	3A/Z	.	.
=222	=222	=222	=222	=222
3%2BBV	0r	3%2BV	3%2dV	3%2d
3%4CZ	.	3%2G	3%4eZ	3%2.g
.	.	3%2cZ	.	.
.	.	.	.	3a/
*	*	*	*	*rscale:1
=223	=223	=223	=223	=223
*M2/1	*M2/1	*M2/1	*M2/1	*M2/1
*met()	*met()	*met()	*met()	*met(C|)
1GG	1G	1B	3%4d	0b
2r	1G	1d	.	.
.	.	.	3%2r	.
2GG/	.	.	.	.
=224	=224	=224	=224	=224
1BB	1G	1d	0r	1r
1C	1E	1c	.	1g
=225	=225	=225	=225	=225
0D	2r	1A	1d	1f
.	1F	.	.	.
.	.	2r	1d	[1a
.	2F/	[2D/	.	.
=226	=226	=226	=226	=226
0r	2F/	2D/]	1d	1a]
.	2F/	2D/	.	.
.	1G	2E/	1B	1g
.	.	2E/	.	.
=227	=227	=227	=227	=227
1.AA	1A	2.C/	2r	1.e
.	.	.	1c	.
.	.	4D/	.	.
.	1r	1E	.	.
2AA/	.	.	2c\	2e/
=228	=228	=228	=228	=228
2AA/	3%4AV	0r	2c\	1e
2AA/	.	.	2c\	.
1D	.	.	1d	1f
.	3%2FZ	.	.	.
=229	=229	=229	=229	=229
*M3/3%2	*M3/3%2	*M3/3%2	*M3/3%2	*M3/3%2
*met(3)	*met()	*met(3)	*met()	*met()
*rscale:3/2	*	*rscale:3/2	*	*
3%2C	3%4GV	3%4E	1e	2.e/
3%2.AA	.	.	.	.
.	.	.	.	4c/
.	.	.	1r	1c
.	3%2AZ	3%2F	.	.
3BB/	.	.	.	.
=230	=230	=230	=230	=230
3%2.C	3%2.G	3%2E	3%4eV	3%4gV
.	.	3%4C	.	.
3BB/	3%2.r	.	.	.
3%2AA	.	.	3%2cZ	3%2aZ
=231	=231	=231	=231	=231
3%2GG	3%4.r	3%2G	3%2dV	3%4bV
3%4C	.	3%2.E	3%4eZ	.
.	.	.	.	3%2ccZ
.	.	3F/	.	.
=232	=232	=232	=232	=232
*	*M3/3%2	*	*	*M3/3%2
*	*met(3)	*	*	*met(3)
*	*rscale:3/2	*	*	*rscale:3/2
3%2GG	3%2G	3%2G	1d	3%2b
3%2BB	3%2G	3%2d	.	3%2r
.	.	.	1r	.
3%2C	3%2E	3%2c	.	3%2g
=233	=233	=233	=233	=233
3%2D	3%2.F	3%2A	0r	3%2f
3%2BB	.	3%2B	.	3%2d
.	3D/	.	.	.
3%2C	3%2E	3%2G	.	3%2g
=234	=234	=234	=234	=234
*	*	*	*M3/3%2	*
*	*	*	*met(3)	*
*	*	*	*rscale:3/2	*
3%4D	3%2D	3%2B	3%2d	3%2f
.	3%2F	3%2A	3%2d	3%2a
3%2r	3%2G	3%2d	3%2B	3%2g
=235	=235	=235	=235	=235
3%4.r	3%4A	3%2c	3%2.c	3%2e
.	.	3%2F	.	3%2f
.	.	.	3A/	.
.	3%2r	3%2G	3%2B	3%2d
=236	=236	=236	=236	=236
3%4AA	3%2.A	3%2E	3%2A	3%4c
.	.	3%2.A	3%2c	.
.	3G/	.	.	.
3%2D	3%2F	.	3%2d	3%2f
.	.	3B\	.	.
=237	=237	=237	=237	=237
3%2C	3%2E	[3%4.c	3%4e	3%2g
3%2.AA	3%2.A	.	.	3%2a
.	.	.	3%2r	[3%2e
3BB/	3G/	.	.	.
=238	=238	=238	=238	=238
3%2.C	3%2G	3%2c]	3%2.e	3e/]
.	.	.	.	3f/
.	3%2E	3%4C	.	3%2g
3BB/	.	.	3d\	.
3%2AA	3%2F	.	3%2c	3%2a
=239	=239	=239	=239	=239
3%2GG	3%4G	3%2D	3%2B	3%2b
3%4C	.	3%2E	3%2.e	3%2.cc
.	3%2E	3%2G	.	.
.	.	.	3d\	3b\
=240	=240	=240	=240	=240
3%2D	3%2F	3%2F	3%2d	3%2a
3%4E	3%2.G	3%2E	3%2B	3%4g
.	.	3%2C	3%2c	.
.	3F/	.	.	.
=241	=241	=241	=241	=241
3%4D	3%2A	3%4F	3%4d	3%2f
.	3%2F	.	.	3%2a
3%2E	3%2G	3%2E	3%2B	3%2g
=242	=242	=242	=242	=242
3%2AA	3%2.A	3%2C	3%2c	3%2e
3%4D	.	3.F/	3%2.d	3%4f
.	3G/	.	.	.
.	.	6G/	.	.
.	3%2F	3.A/	.	.
.	.	.	3c\	.
.	.	6B\	.	.
=243	=243	=243	=243	=243
3%2C	3%2E	3%2.c	3%2e	3%2g
3%2AA	3%4F	.	3%2c	3%2a
.	.	3A/	.	.
3%2D	.	3B\	3%2d	3%2f
.	.	3A/	.	.
=244	=244	=244	=244	=244
3%2.C	[3%4.El	3%2c	3%2.e	3%2g
.	.	3%2G	.	3%2.e
3BB/	.	.	3d\	.
3%2AA	.	3%2A	3%2c	.
.	.	.	.	3f/
=245	=245	=245	=245	=245
3%2GG	3%4.E_	3%4E	3%2B	3%2g
3%4AA	.	.	3%4c	3%2.e
.	.	3%2A	.	.
.	.	.	.	3f/
=246	=246	=246	=246	=246
[3%4.El	3%4.E_	3%2G	[3%4.Bl	3%4g
.	.	3%2.E	.	.
.	.	.	.	3%2e
.	.	3F/	.	.
=247	=247	=247	=247	=247
3%4.E]	3%4.E]	3%4.Gl	3%4.B]	3%4.el
*rscale:1	*rscale:1	*rscale:1	*rscale:1	*rscale:1
==	==	==	==	==
*-	*-	*-	*-	*-
!!!RDF**kern: l=long note in original notation
!!!RDF**kern: i=editorial accidental
!!!RDF**kern: V=start of tuplet marker
!!!RDF**kern: Z=end of tuplet marker
!!!ENC:	Chris Gage 06-04-2012
!!!END:	2012/06/04/
!!!EED:	Jesse Rodin
!!!EEV:	2016/05/30/
!!attribution-level@Jos: 1 (secure)
!!attribution-level@Rue: 4 (doubtful)
!!!ONB:	Translated from MusicXML and edited on 2012/06/08/ by Craig Sapp
!!muse2ps: T^@{OPR}^u^@{ONM}{. }@{OTL}^C^Josquin/La Rue?\n@{SCT}^i2I150v90,90,95,90,150c80Q16
